icons/r.svg

<svg width="16" height="16" viewBox="0 0 16 16" fill="none" xmlns="http://www.w3.org/2000/svg">
<path fill-rule="evenodd" clip-rule="evenodd" d="M13.063 11.1075C14.263 10.2997 15 9.20518 15 8C15 6.96122 14.4525 6.00466 13.5329 5.24305C13.6301 5.62144 13.676 6.01858 13.676 6.42971C13.676 7.29506 13.4701 8.09769 12.9979 8.78366C12.7771 9.10675 12.513 9.38986 12.2097 9.63278L13.063 11.1075ZM3.0238 4.83511C1.7726 5.64807 1 6.76603 1 8C1 9.23397 1.7726 10.3519 3.0238 11.1649V4.83511Z" fill="#909090" fill-opacity="0.9"/>
<path fill-rule="evenodd" clip-rule="evenodd" d="M4.4773 3V13H7.07543V9.69922H7.97461L9.65487 13H12.4773L10.5338 9.27156C11.0303 9.02263 11.4195 8.66876 11.7016 8.20996C12.0069 7.71842 12.1595 7.11458 12.1595 6.39844C12.1595 5.6888 12.0116 5.08008 11.7156 4.57227C11.4197 4.06445 11.0053 3.67546 10.4726 3.40527C9.93992 3.13509 9.31842 3 8.60814 3H4.4773ZM7.07543 7.58984H7.99132C8.29661 7.58984 8.55674 7.55078 8.77169 7.47266C8.98976 7.39128 9.15643 7.26269 9.27169 7.08691C9.39007 6.91113 9.44926 6.68164 9.44926 6.39844C9.44926 6.11198 9.39007 5.87923 9.27169 5.7002C9.15643 5.5179 8.98976 5.38444 8.77169 5.2998C8.55674 5.21191 8.29661 5.16797 7.99132 5.16797H7.07543V7.58984Z" fill="#009EF0"/>
</svg>

<svg xmlns="http://www.w3.org/2000/svg" width="16" height="16" fill="none" viewBox="0 0 16 16"><path fill="#909090" fill-opacity=".9" fill-rule="evenodd" d="M13.063 11.108C14.263 10.3 15 9.205 15 8c0-1.039-.547-1.995-1.467-2.757q.144.569.143 1.187c0 .865-.206 1.668-.678 2.354q-.332.485-.788.849zM3.023 4.835C1.774 5.648 1 6.766 1 8s.773 2.352 2.024 3.165z" clip-rule="evenodd"/><path fill="#009EF0" fill-rule="evenodd" d="M4.477 3v10h2.598V9.7h.9l1.68 3.3h2.822l-1.943-3.728a2.83 2.83 0 0 0 1.168-1.062q.457-.737.457-1.812 0-1.065-.443-1.826a2.95 2.95 0 0 0-1.243-1.167Q9.673 3 8.608 3zm2.598 4.59h.916q.459 0 .78-.117a1 1 0 0 0 .5-.386q.179-.264.178-.689 0-.43-.177-.698a1 1 0 0 0-.5-.4 2.1 2.1 0 0 0-.78-.132h-.917z" clip-rule="evenodd"/></svg>
